X:1
T:Sinai (Perrot), 87.87.887
T:Sinai (Perrot), 87.87.887
T:Clement Hamill Perrot (1842-1910)
T:Public Domain Courtesy of the Cyber Hymnal™
C:Clement Hamill Perrot (1842-1910)
Z:Public Domain
Z:Courtesy of the Cyber Hymnal™
%%score ( 1 2 ) ( 3 4 )
L:1/8
Q:1/4=110
M:4/4
K:Bb
V:1 treble 
V:2 treble 
V:3 bass 
V:4 bass 
V:1
 [DF]2 | [DB]3 [DF] [EG]2 [EA]2 | [DB]2 [Fc]2 [Fd]2 [DF]2 | [EG]3 [FA] [FB]2 [Fd]2 | %4
 [=Ec]4 F2 [CF]2 | [DG]2 [FA]2 [FB]2 [FB]2 | [Gc]2 [Fd]2 [Ee]2 [Ge]2 | [^Fd]3 [Dc] [DB]2 [DG]2 | %8
 [^CA]4 D2 F2 | F3 z F [DG]2 [CF]2 | [DG]2 [FA]2 [FB]2 [FB]2 | B3 z B [Fc]2 [FB]2 | %12
 [Gc]2 [Fd]2 [Ee]2 [Ge]2 | d3 z d [Gc]2 c2 | [DB]4 [DB]2 |] %15
V:2
 x2 | x8 | x8 | x8 | x4 F2 x2 | x8 | x8 | x8 | x4 D2 F2 | C2 C2 x5 | x8 | F2 F2 x5 | x8 | %13
 ^F2 (G2 x =FE) x2 | x6 |] %15
V:3
 [B,,B,]2 | [B,,B,]3 [B,,B,] [E,B,]2 [C,C]2 | [G,B,]2 [F,A,]2 [B,,B,]2 [B,,B,]2 | %3
 [E,B,]3 [E,C] [D,B,]2 [B,,B,]2 | [C,B,]4 [F,A,]2 [F,A,]2 | [F,B,]2 [E,C]2 [D,B,]2 [B,D]2 | %6
 [B,E]2 [_A,B,]2 [G,B,]2 [C,B,]2 | [D,A,]2 [^F,,A,]2 [G,,G,]2 [B,,G,]2 | [A,,G,]4 [D,^F,]2 =F,2 | %9
 [F,A,]2 [F,A,]2 [F,B,]2 [F,A,]2 x | [F,B,]2 [E,C]2 [D,B,]2 [B,D]2 | %11
 [B,D]2 [B,D]2 [B,E]2 [B,D]2 x | [B,E]2 [A,B,]2 [G,B,]2 [C,B,]2 | %13
 [D,A,]2 [G,B,]2 [E,B,]2 [F,A,]2 x | [B,,B,]4 [B,,F,]2 |] %15
V:4
 x2 | x8 | x8 | x8 | x8 | x8 | x8 | x8 | x6 F,2 | x9 | x8 | x9 | x8 | x9 | x6 |] %15

